packages/elvis-assets-icons/icons/svg/src/elsmart-color.svg

<svg width="24" height="24" viewBox="0 0 24 24" fill="none" xmlns="http://www.w3.org/2000/svg">
<path fill-rule="evenodd" clip-rule="evenodd" d="M7.5 4.01919C7.5 3.59438 7.15562 3.25 6.73081 3.25H4.49992C3.25894 3.25 2.24996 4.28482 2.24996 5.55757V15.3889L0.193997 20.004C0.0649989 20.3004 0 20.6163 0 20.9414C0 22.2142 1.00898 23.249 2.24996 23.249V23.25H21.7496C22.0666 23.25 22.3736 23.1823 22.6636 23.051C23.7976 22.5341 24.3096 21.1681 23.8066 20.005C23.8046 19.9999 21.7496 15.3899 21.7496 15.3899V5.55757C21.7496 4.28482 20.7406 3.25 19.4997 3.25H17.2692C16.8444 3.25 16.5 3.59438 16.5 4.01919V4.01919C16.5 4.444 16.8444 4.78838 17.2692 4.78838H19.4997C19.9137 4.78838 20.2497 5.13298 20.2497 5.55757V14.7879H3.74994V5.55757C3.74994 5.13298 4.08593 4.78838 4.49992 4.78838H6.73081C7.15562 4.78838 7.5 4.444 7.5 4.01919V4.01919ZM1.56097 20.6368C1.52097 20.7301 1.49997 20.8337 1.49997 20.9424C1.49997 21.366 1.83697 21.7116 2.24996 21.7116H21.7496C21.8556 21.7116 21.9576 21.6891 22.0546 21.645C22.4316 21.4737 22.6026 21.0183 22.4356 20.6306L20.5177 16.3263H3.48194L1.56097 20.6368Z" fill="black"/>
<path d="M10.5 20.1684C10.086 20.1684 9.75 19.8238 9.75 19.3992C9.75 18.9746 10.086 18.63 10.5 18.63H13.4999C13.9139 18.63 14.2499 18.9746 14.2499 19.3992C14.2499 19.8238 13.9139 20.1684 13.4999 20.1684H10.5Z" fill="#29D305"/>
<path d="M14.5363 7.19386C14.841 7.478 14.8393 7.97691 14.4853 8.19655C14.2298 8.35506 14.0142 8.4379 13.7391 8.54106C13.2831 8.7157 12.7737 8.80302 12.211 8.80302C11.6968 8.80302 11.2117 8.70599 10.7557 8.51195C10.2997 8.31791 9.90679 8.05111 9.57692 7.71154C9.24705 7.37197 8.9851 6.96933 8.79106 6.50364C8.59702 6.03794 8.5 5.54314 8.5 5.01923C8.5 4.48562 8.58732 3.99082 8.76195 3.53482C8.94629 3.06913 9.19369 2.67134 9.50416 2.34148C9.82432 2.00191 10.2027 1.7351 10.6393 1.54106C11.0759 1.34702 11.5464 1.25 12.0509 1.25C12.5457 1.25 13.0017 1.34702 13.4189 1.54106C13.8458 1.7254 14.2096 1.9825 14.5104 2.31237C14.8209 2.64224 15.0634 3.04002 15.238 3.50572C15.4127 3.96171 15.5 4.46137 15.5 5.00468V5.00468C15.5 5.22973 15.3176 5.41216 15.0925 5.41216H10.1154C10.193 5.98458 10.4356 6.45998 10.843 6.83836C11.2602 7.21674 11.7453 7.40592 12.2983 7.40592C12.6379 7.40592 12.9581 7.34771 13.2588 7.23129C13.3345 7.20057 13.4069 7.16726 13.4762 7.13136C13.8167 6.95493 14.2558 6.93233 14.5363 7.19386V7.19386ZM12.0364 2.58888C11.5513 2.58888 11.1389 2.75381 10.7994 3.08368C10.5089 3.36585 10.3072 3.72966 10.1942 4.1751C10.1636 4.29557 10.2584 4.408 10.3826 4.408H13.7032C13.828 4.408 13.9228 4.29471 13.8906 4.17416C13.7759 3.74545 13.5702 3.38681 13.2734 3.09823C12.9338 2.75866 12.5215 2.58888 12.0364 2.58888Z" fill="black"/>
</svg>

<svg width="24" height="24" fill="none" xmlns="http://www.w3.org/2000/svg"><path fill-rule="evenodd" clip-rule="evenodd" d="M7.5 4.02a.77.77 0 00-.77-.77H4.5c-1.241 0-2.25 1.035-2.25 2.308v9.83L.194 20.005a2.336 2.336 0 00-.194.937c0 1.273 1.009 2.308 2.25 2.308v.001h19.5c.317 0 .624-.068.914-.199 1.134-.517 1.646-1.883 1.143-3.046L21.75 15.39V5.558c0-1.273-1.01-2.308-2.25-2.308h-2.23a.77.77 0 000 1.538h2.23a.76.76 0 01.75.77v9.23H3.75v-9.23a.76.76 0 01.75-.77h2.23a.77.77 0 00.77-.769zM1.561 20.636a.774.774 0 00-.061.305c0 .424.337.77.75.77h19.5a.73.73 0 00.305-.067.778.778 0 00.38-1.014l-1.917-4.305H3.482l-1.921 4.31z" fill="#000"/><path d="M10.5 20.168a.76.76 0 01-.75-.769.76.76 0 01.75-.769h3a.76.76 0 01.75.77.76.76 0 01-.75.768h-3z" fill="#29D305"/><path d="M14.536 7.194c.305.284.303.783-.05 1.003a3.862 3.862 0 01-.747.344 4.244 4.244 0 01-1.528.262 3.678 3.678 0 01-2.634-1.091 3.823 3.823 0 01-.786-1.208A3.82 3.82 0 018.5 5.019c0-.533.087-1.028.262-1.484.184-.466.432-.864.742-1.194.32-.34.699-.606 1.135-.8a3.436 3.436 0 011.412-.291c.495 0 .95.097 1.368.291.427.184.79.442 1.091.771.31.33.553.728.728 1.194.175.456.262.955.262 1.499a.407.407 0 01-.408.407h-4.977c.078.573.32 1.048.728 1.426a2.1 2.1 0 001.455.568c.34 0 .66-.058.96-.175.077-.03.149-.064.218-.1.34-.176.78-.199 1.06.063zm-2.5-4.605a1.71 1.71 0 00-1.237.495c-.29.282-.492.646-.605 1.091a.19.19 0 00.189.233h3.32c.125 0 .22-.113.188-.234a2.294 2.294 0 00-.618-1.076c-.34-.34-.752-.51-1.237-.51z" fill="#000"/></svg>
